source/svgs/bowtie/uE9DC-format-list-unordered.svg

<svg xmlns="http://www.w3.org/2000/svg" viewBox="0 0 448 448" enable-background="new 0 0 448 448"><path d="M448 96h-288v-32h288v32zm0 128h-288v32h288v-32zm0 160h-288v32h288v-32zm-352-352h-96v96h96v-96zm0 160h-96v96h96v-96zm0 160h-96v96h96v-96z"/></svg>

<svg xmlns="http://www.w3.org/2000/svg" viewBox="0 0 448 448"><path d="M448 96H160V64h288v32zm0 128H160v32h288v-32zm0 160H160v32h288v-32zM96 32H0v96h96V32zm0 160H0v96h96v-96zm0 160H0v96h96v-96z"/></svg>
